dist/assets/calendar_today.svg

<svg width="14" height="14" viewBox="0 0 14 14" fill="none" xmlns="http://www.w3.org/2000/svg">
<g id="calendar_today" clip-path="url(#clip0_0_568)">
<g id="Vector">
<path d="M11.6667 1.75001H11.0834V0.583344H9.91669V1.75001H4.08335V0.583344H2.91669V1.75001H2.33335C1.69169 1.75001 1.16669 2.27501 1.16669 2.91668V12.25C1.16669 12.8917 1.69169 13.4167 2.33335 13.4167H11.6667C12.3084 13.4167 12.8334 12.8917 12.8334 12.25V2.91668C12.8334 2.27501 12.3084 1.75001 11.6667 1.75001ZM11.6667 12.25H2.33335V4.66668H11.6667V12.25Z" fill="#1C4980"/>
<path fill-rule="evenodd" clip-rule="evenodd" d="M3.50002 7.00001C3.50002 6.67784 3.76119 6.41668 4.08335 6.41668H5.83335C6.15552 6.41668 6.41669 6.67784 6.41669 7.00001C6.41669 7.32218 6.15552 7.58334 5.83335 7.58334H4.08335C3.76119 7.58334 3.50002 7.32218 3.50002 7.00001ZM7.58335 7.00001C7.58335 6.67784 7.84452 6.41668 8.16669 6.41668H9.91669C10.2389 6.41668 10.5 6.67784 10.5 7.00001C10.5 7.32218 10.2389 7.58334 9.91669 7.58334H8.16669C7.84452 7.58334 7.58335 7.32218 7.58335 7.00001ZM3.50002 9.33334C3.50002 9.01118 3.76119 8.75001 4.08335 8.75001H5.83335C6.15552 8.75001 6.41669 9.01118 6.41669 9.33334C6.41669 9.65551 6.15552 9.91668 5.83335 9.91668H4.08335C3.76119 9.91668 3.50002 9.65551 3.50002 9.33334ZM7.58335 9.33334C7.58335 9.01118 7.84452 8.75001 8.16669 8.75001H9.91669C10.2389 8.75001 10.5 9.01118 10.5 9.33334C10.5 9.65551 10.2389 9.91668 9.91669 9.91668H8.16669C7.84452 9.91668 7.58335 9.65551 7.58335 9.33334Z" fill="#1C4980"/>
</g>
</g>
<defs>
<clipPath id="clip0_0_568">
<rect width="14" height="14" fill="white"/>
</clipPath>
</defs>
</svg>

<svg xmlns="http://www.w3.org/2000/svg" width="14" height="14" fill="none"><g fill="#1C4980" clip-path="url(#a)"><path d="M11.667 1.75h-.584V.583H9.917V1.75H4.083V.583H2.917V1.75h-.584a1.17 1.17 0 0 0-1.166 1.167v9.333a1.17 1.17 0 0 0 1.166 1.167h9.334a1.17 1.17 0 0 0 1.166-1.167V2.917a1.17 1.17 0 0 0-1.166-1.167Zm0 10.5H2.333V4.667h9.334v7.583Z"/><path fill-rule="evenodd" d="M3.5 7c0-.322.261-.583.583-.583h1.75a.583.583 0 1 1 0 1.166h-1.75A.583.583 0 0 1 3.5 7Zm4.083 0c0-.322.262-.583.584-.583h1.75a.583.583 0 1 1 0 1.166h-1.75A.583.583 0 0 1 7.583 7ZM3.5 9.333c0-.322.261-.583.583-.583h1.75a.583.583 0 1 1 0 1.167h-1.75a.583.583 0 0 1-.583-.584Zm4.083 0c0-.322.262-.583.584-.583h1.75a.583.583 0 1 1 0 1.167h-1.75a.583.583 0 0 1-.584-.584Z" clip-rule="evenodd"/></g><defs><clipPath id="a"><path fill="#fff" d="M0 0h14v14H0z"/></clipPath></defs></svg>
